img/rodrigo-logo.svg

<svg xmlns="http://www.w3.org/2000/svg" width="404" height="44" fill="none"><path fill="#fff" d="m23.044 35-4.86-7.02H12.82V35H6.988V9.8h10.908c2.232 0 4.164.372 5.796 1.116 1.656.744 2.928 1.8 3.816 3.168.888 1.368 1.332 2.988 1.332 4.86 0 1.872-.456 3.492-1.368 4.86-.888 1.344-2.16 2.376-3.816 3.096l5.652 8.1h-6.264Zm-.108-16.056c0-1.416-.456-2.496-1.368-3.24-.912-.768-2.244-1.152-3.996-1.152H12.82v8.784h4.752c1.752 0 3.084-.384 3.996-1.152.912-.768 1.368-1.848 1.368-3.24ZM45.665 35.432c-2.616 0-4.98-.564-7.092-1.692-2.088-1.128-3.732-2.676-4.932-4.644-1.176-1.992-1.764-4.224-1.764-6.696 0-2.472.588-4.692 1.764-6.66 1.2-1.992 2.844-3.552 4.932-4.68 2.112-1.128 4.476-1.692 7.092-1.692 2.616 0 4.968.564 7.056 1.692 2.088 1.128 3.732 2.688 4.932 4.68 1.2 1.968 1.8 4.188 1.8 6.66 0 2.472-.6 4.704-1.8 6.696-1.2 1.968-2.844 3.516-4.932 4.644-2.088 1.128-4.44 1.692-7.056 1.692Zm0-4.968c1.488 0 2.832-.336 4.032-1.008a7.363 7.363 0 0 0 2.808-2.88c.696-1.224 1.044-2.616 1.044-4.176s-.348-2.952-1.044-4.176a7.116 7.116 0 0 0-2.808-2.844c-1.2-.696-2.544-1.044-4.032-1.044s-2.832.348-4.032 1.044a7.361 7.361 0 0 0-2.844 2.844c-.672 1.224-1.008 2.616-1.008 4.176s.336 2.952 1.008 4.176a7.621 7.621 0 0 0 2.844 2.88c1.2.672 2.544 1.008 4.032 1.008ZM63.836 9.8h11.448c2.736 0 5.148.528 7.236 1.584 2.112 1.032 3.744 2.496 4.896 4.392 1.176 1.896 1.764 4.104 1.764 6.624 0 2.52-.588 4.728-1.764 6.624-1.152 1.896-2.784 3.372-4.896 4.428C80.432 34.484 78.02 35 75.284 35H63.836V9.8Zm11.16 20.412c2.52 0 4.524-.696 6.012-2.088 1.512-1.416 2.268-3.324 2.268-5.724 0-2.4-.756-4.296-2.268-5.688-1.488-1.416-3.492-2.124-6.012-2.124h-5.328v15.624h5.328ZM109.634 35l-4.86-7.02H99.41V35h-5.832V9.8h10.908c2.232 0 4.164.372 5.796 1.116 1.656.744 2.928 1.8 3.816 3.168.888 1.368 1.332 2.988 1.332 4.86 0 1.872-.456 3.492-1.368 4.86-.888 1.344-2.16 2.376-3.816 3.096l5.652 8.1h-6.264Zm-.108-16.056c0-1.416-.456-2.496-1.368-3.24-.912-.768-2.244-1.152-3.996-1.152H99.41v8.784h4.752c1.752 0 3.084-.384 3.996-1.152.912-.768 1.368-1.848 1.368-3.24ZM128.691 14.48v15.84h4.356V35h-14.581v-4.68h4.392V14.48h-4.392V9.8h14.581v4.68h-4.356ZM154.305 22.004h5.328V35h-4.392v-1.512c-1.752 1.296-4.008 1.944-6.768 1.944-2.328 0-4.464-.504-6.408-1.512s-3.492-2.472-4.644-4.392c-1.152-1.944-1.728-4.248-1.728-6.912 0-2.568.588-4.848 1.764-6.84 1.2-2.016 2.856-3.588 4.968-4.716 2.112-1.128 4.488-1.692 7.128-1.692 2.208 0 4.212.372 6.012 1.116 1.8.744 3.312 1.824 4.536 3.24l-3.744 3.456c-1.8-1.896-3.972-2.844-6.516-2.844-1.608 0-3.036.348-4.284 1.044a7.169 7.169 0 0 0-2.916 2.88c-.696 1.248-1.044 2.688-1.044 4.32 0 1.704.336 3.156 1.008 4.356.696 1.2 1.62 2.112 2.772 2.736 1.152.6 2.412.9 3.78.9 2.04 0 3.756-.576 5.148-1.728v-6.84ZM177.255 35.432c-2.616 0-4.98-.564-7.092-1.692-2.088-1.128-3.733-2.676-4.933-4.644-1.176-1.992-1.763-4.224-1.763-6.696 0-2.472.587-4.692 1.763-6.66 1.2-1.992 2.845-3.552 4.933-4.68 2.112-1.128 4.476-1.692 7.092-1.692 2.616 0 4.968.564 7.056 1.692 2.088 1.128 3.732 2.688 4.932 4.68 1.2 1.968 1.799 4.188 1.799 6.66 0 2.472-.599 4.704-1.799 6.696-1.2 1.968-2.844 3.516-4.932 4.644-2.088 1.128-4.44 1.692-7.056 1.692Zm0-4.968c1.488 0 2.831-.336 4.031-1.008a7.363 7.363 0 0 0 2.808-2.88c.696-1.224 1.045-2.616 1.045-4.176s-.349-2.952-1.045-4.176a7.116 7.116 0 0 0-2.808-2.844c-1.2-.696-2.543-1.044-4.031-1.044-1.488 0-2.832.348-4.032 1.044a7.364 7.364 0 0 0-2.845 2.844c-.672 1.224-1.008 2.616-1.008 4.176s.336 2.952 1.008 4.176a7.624 7.624 0 0 0 2.845 2.88c1.2.672 2.544 1.008 4.032 1.008ZM234.385 9.368c2.976 0 5.292.876 6.948 2.628 1.656 1.728 2.484 4.236 2.484 7.524V35h-5.832V19.7c0-1.776-.468-3.108-1.404-3.996-.912-.912-2.124-1.368-3.636-1.368-1.656 0-2.976.48-3.96 1.44-.984.936-1.476 2.364-1.476 4.284V35h-5.832V19.7c0-1.776-.432-3.108-1.296-3.996-.864-.912-2.04-1.368-3.528-1.368-1.632 0-2.94.48-3.924 1.44-.984.936-1.476 2.364-1.476 4.284V35h-5.832V9.8h5.652v3.096c.768-1.128 1.788-1.992 3.06-2.592 1.272-.624 2.736-.936 4.392-.936 1.728 0 3.24.324 4.536.972 1.296.624 2.292 1.536 2.988 2.736.864-1.2 1.992-2.112 3.384-2.736 1.416-.648 3-.972 4.752-.972ZM261.77 35.432c-2.616 0-4.98-.564-7.092-1.692-2.088-1.128-3.732-2.676-4.932-4.644-1.176-1.992-1.764-4.224-1.764-6.696 0-2.472.588-4.692 1.764-6.66 1.2-1.992 2.844-3.552 4.932-4.68 2.112-1.128 4.476-1.692 7.092-1.692 2.616 0 4.968.564 7.056 1.692 2.088 1.128 3.732 2.688 4.932 4.68 1.2 1.968 1.8 4.188 1.8 6.66 0 2.472-.6 4.704-1.8 6.696-1.2 1.968-2.844 3.516-4.932 4.644-2.088 1.128-4.44 1.692-7.056 1.692Zm0-4.968c1.488 0 2.832-.336 4.032-1.008a7.363 7.363 0 0 0 2.808-2.88c.696-1.224 1.044-2.616 1.044-4.176s-.348-2.952-1.044-4.176a7.116 7.116 0 0 0-2.808-2.844c-1.2-.696-2.544-1.044-4.032-1.044s-2.832.348-4.032 1.044a7.361 7.361 0 0 0-2.844 2.844c-.672 1.224-1.008 2.616-1.008 4.176s.336 2.952 1.008 4.176a7.621 7.621 0 0 0 2.844 2.88c1.2.672 2.544 1.008 4.032 1.008ZM295.997 35l-4.86-7.02h-5.364V35h-5.832V9.8h10.908c2.232 0 4.164.372 5.796 1.116 1.656.744 2.928 1.8 3.816 3.168.888 1.368 1.332 2.988 1.332 4.86 0 1.872-.456 3.492-1.368 4.86-.888 1.344-2.16 2.376-3.816 3.096l5.652 8.1h-6.264Zm-.108-16.056c0-1.416-.456-2.496-1.368-3.24-.912-.768-2.244-1.152-3.996-1.152h-4.752v8.784h4.752c1.752 0 3.084-.384 3.996-1.152.912-.768 1.368-1.848 1.368-3.24ZM327.006 32.84c-1.2.816-2.712 1.452-4.536 1.908-1.8.456-3.72.684-5.76.684-2.544 0-4.704-.312-6.48-.936-1.776-.648-3.12-1.536-4.032-2.664a6.153 6.153 0 0 1-1.368-3.924c0-1.344.372-2.532 1.116-3.564.744-1.032 1.764-1.8 3.06-2.304-.984-.528-1.752-1.248-2.304-2.16-.528-.912-.792-1.932-.792-3.06 0-1.368.42-2.616 1.26-3.744.84-1.128 2.112-2.028 3.816-2.7 1.704-.672 3.792-1.008 6.264-1.008 1.632 0 3.228.168 4.788.504 1.56.312 2.916.744 4.068 1.296l-1.62 4.464a16.38 16.38 0 0 0-7.02-1.548c-1.872 0-3.288.288-4.248.864-.936.552-1.404 1.308-1.404 2.268 0 .888.312 1.572.936 2.052.648.456 1.62.684 2.916.684h6.876v4.608h-7.236c-1.464 0-2.592.252-3.384.756-.792.504-1.188 1.236-1.188 2.196 0 1.008.504 1.8 1.512 2.376 1.032.552 2.604.828 4.716.828 1.488 0 2.976-.192 4.464-.576 1.488-.408 2.748-.972 3.78-1.692l1.8 4.392ZM339.065 14.48v15.84h4.357V35h-14.581v-4.68h4.392V14.48h-4.392V9.8h14.581v4.68h-4.357ZM363.884 35l-4.86-7.02h-5.364V35h-5.832V9.8h10.908c2.232 0 4.164.372 5.796 1.116 1.656.744 2.928 1.8 3.816 3.168.888 1.368 1.332 2.988 1.332 4.86 0 1.872-.456 3.492-1.368 4.86-.888 1.344-2.16 2.376-3.816 3.096l5.652 8.1h-6.264Zm-.108-16.056c0-1.416-.456-2.496-1.368-3.24-.912-.768-2.244-1.152-3.996-1.152h-4.752v8.784h4.752c1.752 0 3.084-.384 3.996-1.152.912-.768 1.368-1.848 1.368-3.24ZM385.641 9.368c2.328 0 4.355.456 6.083 1.368 1.728.912 3.073 2.256 4.033 4.032.96 1.776 1.44 3.924 1.44 6.444V35h-5.832v-6.048h-11.52V35h-5.76V21.212c0-2.52.48-4.668 1.44-6.444.96-1.776 2.303-3.12 4.031-4.032 1.728-.912 3.757-1.368 6.085-1.368Zm5.724 14.904v-3.6c0-2.088-.517-3.66-1.549-4.716-1.032-1.08-2.436-1.62-4.212-1.62-1.8 0-3.215.54-4.247 1.62-1.008 1.056-1.512 2.628-1.512 4.716v3.6h11.52Z"/><path fill="#F3D535" d="M399 5h5v30h-5V5ZM5 39H0V9h5v30ZM354 5V0h50v5h-50ZM.003 44v-5h50v5h-50Z"/></svg>

<svg width="404" height="44" viewBox="0 0 404 44" fill="none" xmlns="http://www.w3.org/2000/svg">
<path d="M23.044 35L18.184 27.98H12.82V35H6.988V9.8H17.896C20.128 9.8 22.06 10.172 23.692 10.916C25.348 11.66 26.62 12.716 27.508 14.084C28.396 15.452 28.84 17.072 28.84 18.944C28.84 20.816 28.384 22.436 27.472 23.804C26.584 25.148 25.312 26.18 23.656 26.9L29.308 35H23.044ZM22.936 18.944C22.936 17.528 22.48 16.448 21.568 15.704C20.656 14.936 19.324 14.552 17.572 14.552H12.82V23.336H17.572C19.324 23.336 20.656 22.952 21.568 22.184C22.48 21.416 22.936 20.336 22.936 18.944Z" fill="white"/>
<path d="M45.6647 35.432C43.0487 35.432 40.6847 34.868 38.5727 33.74C36.4847 32.612 34.8407 31.064 33.6407 29.096C32.4647 27.104 31.8767 24.872 31.8767 22.4C31.8767 19.928 32.4647 17.708 33.6407 15.74C34.8407 13.748 36.4847 12.188 38.5727 11.06C40.6847 9.932 43.0487 9.368 45.6647 9.368C48.2807 9.368 50.6327 9.932 52.7207 11.06C54.8087 12.188 56.4527 13.748 57.6527 15.74C58.8527 17.708 59.4527 19.928 59.4527 22.4C59.4527 24.872 58.8527 27.104 57.6527 29.096C56.4527 31.064 54.8087 32.612 52.7207 33.74C50.6327 34.868 48.2807 35.432 45.6647 35.432ZM45.6647 30.464C47.1527 30.464 48.4967 30.128 49.6967 29.456C50.8967 28.76 51.8327 27.8 52.5047 26.576C53.2007 25.352 53.5487 23.96 53.5487 22.4C53.5487 20.84 53.2007 19.448 52.5047 18.224C51.8327 17 50.8967 16.052 49.6967 15.38C48.4967 14.684 47.1527 14.336 45.6647 14.336C44.1767 14.336 42.8327 14.684 41.6327 15.38C40.4327 16.052 39.4847 17 38.7887 18.224C38.1167 19.448 37.7807 20.84 37.7807 22.4C37.7807 23.96 38.1167 25.352 38.7887 26.576C39.4847 27.8 40.4327 28.76 41.6327 29.456C42.8327 30.128 44.1767 30.464 45.6647 30.464Z" fill="white"/>
<path d="M63.8357 9.8H75.2837C78.0197 9.8 80.4317 10.328 82.5197 11.384C84.6317 12.416 86.2637 13.88 87.4157 15.776C88.5917 17.672 89.1797 19.88 89.1797 22.4C89.1797 24.92 88.5917 27.128 87.4157 29.024C86.2637 30.92 84.6317 32.396 82.5197 33.452C80.4317 34.484 78.0197 35 75.2837 35H63.8357V9.8ZM74.9957 30.212C77.5157 30.212 79.5197 29.516 81.0077 28.124C82.5197 26.708 83.2757 24.8 83.2757 22.4C83.2757 20 82.5197 18.104 81.0077 16.712C79.5197 15.296 77.5157 14.588 74.9957 14.588H69.6677V30.212H74.9957Z" fill="white"/>
<path d="M109.634 35L104.774 27.98H99.4098V35H93.5778V9.8H104.486C106.718 9.8 108.65 10.172 110.282 10.916C111.938 11.66 113.21 12.716 114.098 14.084C114.986 15.452 115.43 17.072 115.43 18.944C115.43 20.816 114.974 22.436 114.062 23.804C113.174 25.148 111.902 26.18 110.246 26.9L115.898 35H109.634ZM109.526 18.944C109.526 17.528 109.07 16.448 108.158 15.704C107.246 14.936 105.914 14.552 104.162 14.552H99.4098V23.336H104.162C105.914 23.336 107.246 22.952 108.158 22.184C109.07 21.416 109.526 20.336 109.526 18.944Z" fill="white"/>
<path d="M128.691 14.48V30.32H133.047V35H118.466V30.32H122.858V14.48H118.466V9.8H133.047V14.48H128.691Z" fill="white"/>
<path d="M154.305 22.004H159.633V35H155.241V33.488C153.489 34.784 151.233 35.432 148.473 35.432C146.145 35.432 144.009 34.928 142.065 33.92C140.121 32.912 138.573 31.448 137.421 29.528C136.269 27.584 135.693 25.28 135.693 22.616C135.693 20.048 136.281 17.768 137.457 15.776C138.657 13.76 140.313 12.188 142.425 11.06C144.537 9.932 146.913 9.368 149.553 9.368C151.761 9.368 153.765 9.74 155.565 10.484C157.365 11.228 158.877 12.308 160.101 13.724L156.357 17.18C154.557 15.284 152.385 14.336 149.841 14.336C148.233 14.336 146.805 14.684 145.557 15.38C144.309 16.052 143.337 17.012 142.641 18.26C141.945 19.508 141.597 20.948 141.597 22.58C141.597 24.284 141.933 25.736 142.605 26.936C143.301 28.136 144.225 29.048 145.377 29.672C146.529 30.272 147.789 30.572 149.157 30.572C151.197 30.572 152.913 29.996 154.305 28.844V22.004Z" fill="white"/>
<path d="M177.255 35.432C174.639 35.432 172.275 34.868 170.163 33.74C168.075 32.612 166.43 31.064 165.23 29.096C164.054 27.104 163.467 24.872 163.467 22.4C163.467 19.928 164.054 17.708 165.23 15.74C166.43 13.748 168.075 12.188 170.163 11.06C172.275 9.932 174.639 9.368 177.255 9.368C179.871 9.368 182.223 9.932 184.311 11.06C186.399 12.188 188.043 13.748 189.243 15.74C190.443 17.708 191.042 19.928 191.042 22.4C191.042 24.872 190.443 27.104 189.243 29.096C188.043 31.064 186.399 32.612 184.311 33.74C182.223 34.868 179.871 35.432 177.255 35.432ZM177.255 30.464C178.743 30.464 180.086 30.128 181.286 29.456C182.486 28.76 183.422 27.8 184.094 26.576C184.79 25.352 185.139 23.96 185.139 22.4C185.139 20.84 184.79 19.448 184.094 18.224C183.422 17 182.486 16.052 181.286 15.38C180.086 14.684 178.743 14.336 177.255 14.336C175.767 14.336 174.423 14.684 173.223 15.38C172.023 16.052 171.074 17 170.378 18.224C169.706 19.448 169.37 20.84 169.37 22.4C169.37 23.96 169.706 25.352 170.378 26.576C171.074 27.8 172.023 28.76 173.223 29.456C174.423 30.128 175.767 30.464 177.255 30.464Z" fill="white"/>
<path d="M234.385 9.368C237.361 9.368 239.677 10.244 241.333 11.996C242.989 13.724 243.817 16.232 243.817 19.52V35H237.985V19.7C237.985 17.924 237.517 16.592 236.581 15.704C235.669 14.792 234.457 14.336 232.945 14.336C231.289 14.336 229.969 14.816 228.985 15.776C228.001 16.712 227.509 18.14 227.509 20.06V35H221.677V19.7C221.677 17.924 221.245 16.592 220.381 15.704C219.517 14.792 218.341 14.336 216.853 14.336C215.221 14.336 213.913 14.816 212.929 15.776C211.945 16.712 211.453 18.14 211.453 20.06V35H205.621V9.8H211.273V12.896C212.041 11.768 213.061 10.904 214.333 10.304C215.605 9.68 217.069 9.368 218.725 9.368C220.453 9.368 221.965 9.692 223.261 10.34C224.557 10.964 225.553 11.876 226.249 13.076C227.113 11.876 228.241 10.964 229.633 10.34C231.049 9.692 232.633 9.368 234.385 9.368Z" fill="white"/>
<path d="M261.77 35.432C259.154 35.432 256.79 34.868 254.678 33.74C252.59 32.612 250.946 31.064 249.746 29.096C248.57 27.104 247.982 24.872 247.982 22.4C247.982 19.928 248.57 17.708 249.746 15.74C250.946 13.748 252.59 12.188 254.678 11.06C256.79 9.932 259.154 9.368 261.77 9.368C264.386 9.368 266.738 9.932 268.826 11.06C270.914 12.188 272.558 13.748 273.758 15.74C274.958 17.708 275.558 19.928 275.558 22.4C275.558 24.872 274.958 27.104 273.758 29.096C272.558 31.064 270.914 32.612 268.826 33.74C266.738 34.868 264.386 35.432 261.77 35.432ZM261.77 30.464C263.258 30.464 264.602 30.128 265.802 29.456C267.002 28.76 267.938 27.8 268.61 26.576C269.306 25.352 269.654 23.96 269.654 22.4C269.654 20.84 269.306 19.448 268.61 18.224C267.938 17 267.002 16.052 265.802 15.38C264.602 14.684 263.258 14.336 261.77 14.336C260.282 14.336 258.938 14.684 257.738 15.38C256.538 16.052 255.59 17 254.894 18.224C254.222 19.448 253.886 20.84 253.886 22.4C253.886 23.96 254.222 25.352 254.894 26.576C255.59 27.8 256.538 28.76 257.738 29.456C258.938 30.128 260.282 30.464 261.77 30.464Z" fill="white"/>
<path d="M295.997 35L291.137 27.98H285.773V35H279.941V9.8H290.849C293.081 9.8 295.013 10.172 296.645 10.916C298.301 11.66 299.573 12.716 300.461 14.084C301.349 15.452 301.793 17.072 301.793 18.944C301.793 20.816 301.337 22.436 300.425 23.804C299.537 25.148 298.265 26.18 296.609 26.9L302.261 35H295.997ZM295.889 18.944C295.889 17.528 295.433 16.448 294.521 15.704C293.609 14.936 292.277 14.552 290.525 14.552H285.773V23.336H290.525C292.277 23.336 293.609 22.952 294.521 22.184C295.433 21.416 295.889 20.336 295.889 18.944Z" fill="white"/>
<path d="M327.006 32.84C325.806 33.656 324.294 34.292 322.47 34.748C320.67 35.204 318.75 35.432 316.71 35.432C314.166 35.432 312.006 35.12 310.23 34.496C308.454 33.848 307.11 32.96 306.198 31.832C305.286 30.68 304.83 29.372 304.83 27.908C304.83 26.564 305.202 25.376 305.946 24.344C306.69 23.312 307.71 22.544 309.006 22.04C308.022 21.512 307.254 20.792 306.702 19.88C306.174 18.968 305.91 17.948 305.91 16.82C305.91 15.452 306.33 14.204 307.17 13.076C308.01 11.948 309.282 11.048 310.986 10.376C312.69 9.704 314.778 9.368 317.25 9.368C318.882 9.368 320.478 9.536 322.038 9.872C323.598 10.184 324.954 10.616 326.106 11.168L324.486 15.632C322.278 14.6 319.938 14.084 317.466 14.084C315.594 14.084 314.178 14.372 313.218 14.948C312.282 15.5 311.814 16.256 311.814 17.216C311.814 18.104 312.126 18.788 312.75 19.268C313.398 19.724 314.37 19.952 315.666 19.952H322.542V24.56H315.306C313.842 24.56 312.714 24.812 311.922 25.316C311.13 25.82 310.734 26.552 310.734 27.512C310.734 28.52 311.238 29.312 312.246 29.888C313.278 30.44 314.85 30.716 316.962 30.716C318.45 30.716 319.938 30.524 321.426 30.14C322.914 29.732 324.174 29.168 325.206 28.448L327.006 32.84Z" fill="white"/>
<path d="M339.065 14.48V30.32H343.422V35H328.841V30.32H333.233V14.48H328.841V9.8H343.422V14.48H339.065Z" fill="white"/>
<path d="M363.884 35L359.024 27.98H353.66V35H347.828V9.8H358.736C360.968 9.8 362.9 10.172 364.532 10.916C366.188 11.66 367.46 12.716 368.348 14.084C369.236 15.452 369.68 17.072 369.68 18.944C369.68 20.816 369.224 22.436 368.312 23.804C367.424 25.148 366.152 26.18 364.496 26.9L370.148 35H363.884ZM363.776 18.944C363.776 17.528 363.32 16.448 362.408 15.704C361.496 14.936 360.164 14.552 358.412 14.552H353.66V23.336H358.412C360.164 23.336 361.496 22.952 362.408 22.184C363.32 21.416 363.776 20.336 363.776 18.944Z" fill="white"/>
<path d="M385.641 9.368C387.969 9.368 389.996 9.824 391.724 10.736C393.452 11.648 394.797 12.992 395.757 14.768C396.717 16.544 397.197 18.692 397.197 21.212V35H391.365V28.952H379.845V35H374.085V21.212C374.085 18.692 374.565 16.544 375.525 14.768C376.485 12.992 377.828 11.648 379.556 10.736C381.284 9.824 383.313 9.368 385.641 9.368ZM391.365 24.272V20.672C391.365 18.584 390.848 17.012 389.816 15.956C388.784 14.876 387.38 14.336 385.604 14.336C383.804 14.336 382.389 14.876 381.357 15.956C380.349 17.012 379.845 18.584 379.845 20.672V24.272H391.365Z" fill="white"/>
<path d="M399 5H404V35H399V5Z" fill="#F3D535"/>
<path d="M5 39H0V9H5V39Z" fill="#F3D535"/>
<path d="M354 5V0H404V5H354Z" fill="#F3D535"/>
<path d="M0.00256348 44V39H50.0026V44H0.00256348Z" fill="#F3D535"/>
</svg>
